; generated by PrusaSlicer 2.5.0+win64 on 2023-02-12 at 11:49:31 UTC

; 

; external perimeters extrusion width = 0.60mm
; perimeters extrusion width = 0.43mm
; infill extrusion width = 0.45mm
; solid infill extrusion width = 0.70mm
; top infill extrusion width = 0.45mm
; support material extrusion width = 0.37mm
; first layer extrusion width = 0.42mm

M73 P0 R20
M201 X9000 Y9000 Z500 E10000 ; sets maximum accelerations, mm/sec^2
M203 X500 Y500 Z12 E120 ; sets maximum feedrates, mm / sec
M204 P2000 R1500 T2000 ; sets acceleration (P, T) and retract acceleration (R), mm/sec^2
M205 X10.00 Y10.00 Z0.20 E4.50 ; sets the jerk limits, mm/sec
M205 S0 T0 ; sets the minimum extruding and travel feed rate, mm/sec
M107
;TYPE:Custom
M862.3 P "MK2.5" ; printer model check
M862.1 P0.4 ; nozzle diameter check
M115 U3.10.0 ; tell printer latest fw version
G90 ; use absolute coordinates
M83 ; extruder relative mode
M104 S240 ; set extruder temp
M140 S85 ; set bed temp
M190 S85 ; wait for bed temp
M109 S240 ; wait for extruder temp
G28 W ; home all without mesh bed level
G80 ; mesh bed leveling
G1 Y-3.0 F1000.0 ; go outside print area
G92 E0.0
G1 X60.0 E9.0 F1000.0 ; intro line
G1 X100.0 E12.5 F1000.0 ; intro line
G92 E0.0
M907 X540 Z830 E550
G21 ; set units to millimeters
G90 ; use absolute coordinates
M83 ; use relative distances for extrusion
M900 K0.08 ; Filament gcode LA 1.5
M900 K45 ; Filament gcode LA 1.0
M107
;LAYER_CHANGE
;Z:0.2
;HEIGHT:0.2
;BEFORE_LAYER_CHANGE
G92 E0.0
;0.2


G1 E-1 F2100
G1 Z.2 F720
;AFTER_LAYER_CHANGE
;0.2
G1 Z.4
G1 X138.503 Y74.972 F10800
G1 Z.2 F720
G1 E1 F2100
M204 S800
;TYPE:Skirt/Brim
;WIDTH:0.42
G1 F1200
G1 X138.773 Y74.511 E.01672
G1 X139.086 Y74.08 E.01671
G1 X139.436 Y73.688 E.01647
G1 X139.828 Y73.327 E.0167
G1 X140.257 Y73.006 E.01681
G1 X140.7 Y72.737 E.01626
G1 X141.207 Y72.496 E.01761
G1 X141.745 Y72.306 E.01786
G1 X142.314 Y72.173 E.01834
G1 X150.026 Y71.1 E.24412
G1 X150.853 Y71.057 E.02596
G1 X151.449 Y71.106 E.01877
G1 X152.025 Y71.218 E.01839
G1 X152.604 Y71.4 E.01902
G1 X153.139 Y71.636 E.01835
G1 X153.665 Y71.942 E.01908
G1 X154.153 Y72.305 E.01908
G1 X154.644 Y72.772 E.02122
G1 X155.035 Y73.247 E.01929
G1 X155.477 Y73.963 E.02639
G1 X158.013 Y79.075 E.17894
G1 X159.451 Y78.885 E.04548
G1 X160.19 Y78.897 E.02318
G1 X160.918 Y79.076 E.02349
G1 X161.657 Y79.457 E.02607
G1 X162.216 Y79.938 E.02313
G1 X162.651 Y80.522 E.02285
G1 X162.913 Y81.082 E.01938
G1 X163.07 Y81.679 E.01934
G1 X163.933 Y88.073 E.20231
G1 X163.845 Y88.94 E.02731
G1 X163.528 Y89.766 E.02774
G1 X163.002 Y90.484 E.02788
G1 X162.298 Y91.046 E.02827
G1 X161.721 Y91.316 E.01996
G1 X161.12 Y91.473 E.0195
G1 X152.964 Y92.6 E.25816
G1 X152.211 Y92.582 E.02359
G1 X151.491 Y92.401 E.02327
G1 X150.763 Y92.022 E.02575
G1 X150.187 Y91.521 E.02393
G1 X149.696 Y90.822 E.02678
G1 X149.356 Y89.823 E.03308
G1 X147.882 Y79.17 E.33721
G1 X145.907 Y79.442 E.0625
G1 X145.753 Y80.486 E.03309
G1 X145.417 Y81.264 E.02655
G1 X145.014 Y81.812 E.02134
G1 X144.517 Y82.26 E.02097
G1 X144.023 Y82.561 E.01814
G1 X143.493 Y82.769 E.01784
G1 X141.814 Y83.038 E.05331
G1 X140.73 Y82.946 E.03413
G1 X139.833 Y82.578 E.0304
G1 X139.176 Y82.068 E.02609
G1 X138.661 Y81.406 E.02628
G1 X138.401 Y80.86 E.01896
G1 X138.241 Y80.27 E.01918
G1 X137.934 Y78.039 E.07059
G1 X137.901 Y77.331 E.02222
G1 X137.959 Y76.649 E.02146
G1 X138.105 Y75.973 E.0217
G1 X138.274 Y75.475 E.0165
G1 X138.478 Y75.026 E.01545
M204 S1000
G1 X138.821 Y75.182 F10800
M204 S800
G1 F1200
G1 X139.083 Y74.725 E.0165
G1 X139.386 Y74.31 E.01611
G1 X139.711 Y73.947 E.01528
G1 X140.076 Y73.612 E.01553
G1 X140.475 Y73.314 E.01563
G1 X140.887 Y73.065 E.01509
G1 X141.359 Y72.841 E.0164
G1 X141.859 Y72.666 E.0166
G1 X142.391 Y72.542 E.01712
G1 X150.07 Y71.475 E.24308
G1 X150.835 Y71.434 E.02403
G1 X151.388 Y71.479 E.01738
G1 X151.942 Y71.586 E.01771
G1 X152.48 Y71.756 E.01768
G1 X152.977 Y71.976 E.01703
G1 X153.466 Y72.262 E.01776
G1 X153.918 Y72.6 E.01773
G1 X154.36 Y73.021 E.01914
G1 X154.721 Y73.457 E.01773
G1 X155.144 Y74.138 E.02514
G1 X157.795 Y79.485 E.18713
G1 X159.459 Y79.263 E.05263
M73 P1 R20
G1 X160.162 Y79.274 E.02203
G1 X160.804 Y79.436 E.02077
G1 X161.429 Y79.758 E.02205
G1 X161.928 Y80.183 E.02053
G1 X162.319 Y80.702 E.02039
G1 X162.554 Y81.196 E.01714
G1 X162.698 Y81.741 E.01769
G1 X163.555 Y88.06 E.19994
G1 X163.483 Y88.832 E.02431
G1 X163.207 Y89.567 E.02461
G1 X162.745 Y90.207 E.02474
G1 X162.115 Y90.715 E.02538
G1 X161.608 Y90.956 E.0176
G1 X161.057 Y91.101 E.01787
G1 X152.928 Y92.224 E.2573
G1 X152.244 Y92.205 E.02146
G1 X151.607 Y92.042 E.02062
G1 X150.991 Y91.721 E.02176
G1 X150.481 Y91.285 E.02104
G1 X150.021 Y90.628 E.02515
G1 X149.727 Y89.755 E.02889
G1 X148.204 Y78.745 E.34849
G1 X145.464 Y79.123 E.08672
G1 X145.507 Y79.577 E.01431
G1 X145.396 Y80.361 E.02481
G1 X145.08 Y81.094 E.02503
G1 X144.723 Y81.571 E.01869
G1 X144.305 Y81.948 E.01766
G1 X143.866 Y82.218 E.01613
G1 X143.412 Y82.4 E.01535
G1 X141.777 Y82.662 E.05193
G1 X140.843 Y82.585 E.02938
G1 X140.043 Y82.264 E.02704
G1 X139.426 Y81.784 E.0245
G1 X138.993 Y81.226 E.02215
G1 X138.749 Y80.714 E.01779
G1 X138.613 Y80.207 E.01647
G1 X138.31 Y78.012 E.06946
G1 X138.278 Y77.35 E.02078
G1 X138.333 Y76.693 E.02067
G1 X138.465 Y76.083 E.01957
G1 X138.621 Y75.621 E.01528
G1 X138.796 Y75.236 E.01326
M204 S1000
G1 X139.139 Y75.391 F10800
M204 S800
G1 F1200
G1 X139.394 Y74.939 E.01629
G1 X139.674 Y74.554 E.01491
G1 X139.973 Y74.218 E.01409
G1 X140.323 Y73.897 E.01492
G1 X140.692 Y73.622 E.01443
G1 X141.073 Y73.393 E.01392
G1 X141.511 Y73.186 E.01519
G1 X141.973 Y73.025 E.01534
G1 X142.467 Y72.912 E.0159
G1 X150.114 Y71.849 E.24207
G1 X150.819 Y71.811 E.02212
G1 X151.327 Y71.851 E.016
G1 X151.84 Y71.95 E.01637
G1 X152.337 Y72.105 E.01633
G1 X152.814 Y72.316 E.01635
G1 X153.265 Y72.581 E.01641
G1 X153.683 Y72.895 E.01638
G1 X154.078 Y73.271 E.01711
G1 X154.408 Y73.667 E.01616
G1 X154.81 Y74.314 E.02387
G1 X157.578 Y79.895 E.19533
G1 X159.467 Y79.64 E.05979
G1 X160.132 Y79.651 E.02086
G1 X160.688 Y79.795 E.01801
G1 X161.203 Y80.061 E.01816
G1 X161.641 Y80.429 E.01795
G1 X161.987 Y80.882 E.01787
G1 X162.205 Y81.341 E.01594
G1 X162.326 Y81.803 E.01497
G1 X163.178 Y88.049 E.19766
G1 X163.12 Y88.727 E.02134
G1 X162.884 Y89.371 E.02148
G1 X162.486 Y89.932 E.02158
G1 X161.931 Y90.386 E.02248
G1 X161.493 Y90.596 E.01522
G1 X160.994 Y90.729 E.01622
G1 X152.891 Y91.848 E.25647
G1 X152.316 Y91.835 E.01802
G1 X151.722 Y91.682 E.01926
G1 X151.217 Y91.419 E.01783
G1 X150.776 Y91.047 E.0181
G1 X150.346 Y90.434 E.02347
G1 X150.098 Y89.686 E.0247
G1 X148.526 Y78.32 E.35979
G1 X145.044 Y78.8 E.11021
G1 X145.13 Y79.55 E.02367
G1 X145.026 Y80.283 E.02319
G1 X144.765 Y80.886 E.0206
G1 X144.433 Y81.33 E.01738
G1 X144.067 Y81.655 E.01535
G1 X143.708 Y81.875 E.01322
G1 X143.33 Y82.032 E.01282
G1 X141.739 Y82.286 E.05051
G1 X140.954 Y82.224 E.0247
G1 X140.25 Y81.948 E.02371
G1 X139.707 Y81.532 E.02144
G1 X139.323 Y81.043 E.01948
G1 X139.108 Y80.597 E.01552
G1 X138.985 Y80.143 E.01478
G1 X138.686 Y77.984 E.06832
G1 X138.654 Y77.369 E.01931
G1 X138.708 Y76.737 E.01988
G1 X138.826 Y76.193 E.01746
G1 X138.969 Y75.768 E.01408
G1 X139.114 Y75.446 E.01108
M204 S1000
G1 X139.458 Y75.6 F10800
M204 S800
G1 F1200
G1 X139.706 Y75.151 E.01608
G1 X139.962 Y74.797 E.01372
G1 X140.235 Y74.489 E.0129
G1 X140.557 Y74.193 E.01372
G1 X140.895 Y73.94 E.01323
G1 X141.259 Y73.721 E.01331
G1 X141.662 Y73.532 E.01396
G1 X142.086 Y73.385 E.01408
G1 X142.543 Y73.281 E.01469
G1 X150.159 Y72.224 E.24108
G1 X150.802 Y72.188 E.0202
G1 X151.287 Y72.226 E.01525
G1 X151.757 Y72.317 E.01502
G1 X152.213 Y72.461 E.01499
G1 X152.65 Y72.656 E.01501
G1 X153.064 Y72.9 E.01506
G1 X153.447 Y73.189 E.01504
G1 X153.796 Y73.522 E.01513
G1 X154.095 Y73.878 E.01458
G1 X154.476 Y74.49 E.02259
G1 X157.36 Y80.305 E.20353
G1 X159.505 Y80.015 E.06785
G1 X160.063 Y80.022 E.01751
G1 X160.538 Y80.141 E.01536
G1 X160.98 Y80.365 E.01553
G1 X161.357 Y80.677 E.01535
G1 X161.657 Y81.065 E.01536
G1 X161.846 Y81.456 E.01361
G1 X161.954 Y81.866 E.0133
G1 X162.8 Y88.041 E.19544
G1 X162.756 Y88.626 E.01839
G1 X162.559 Y89.177 E.01835
G1 X162.224 Y89.659 E.0184
G1 X161.746 Y90.056 E.01948
G1 X161.347 Y90.248 E.01389
G1 X160.931 Y90.357 E.01347
G1 X152.882 Y91.471 E.2548
G1 X152.385 Y91.463 E.01557
G1 X151.875 Y91.337 E.01646
G1 X151.411 Y91.095 E.01641
G1 X151.04 Y90.778 E.0153
G1 X150.672 Y90.244 E.02032
G1 X150.47 Y89.619 E.02061
G1 X148.848 Y77.895 E.3711
G1 X144.621 Y78.478 E.13377
G1 X144.753 Y79.523 E.03304
G1 X144.657 Y80.203 E.02151
G1 X144.43 Y80.711 E.01743
G1 X144.145 Y81.085 E.01476
G1 X143.831 Y81.36 E.01308
G1 X143.546 Y81.535 E.0105
G1 X143.246 Y81.663 E.01022
G1 X141.701 Y81.91 E.04906
G1 X141.062 Y81.862 E.02011
G1 X140.454 Y81.63 E.0204
G1 X139.986 Y81.277 E.01837
G1 X139.652 Y80.858 E.01679
G1 X139.467 Y80.479 E.01322
G1 X139.356 Y80.078 E.01305
G1 X139.062 Y77.957 E.06716
G1 X139.032 Y77.363 E.01864
G1 X139.083 Y76.783 E.01827
G1 X139.187 Y76.303 E.01539
G1 X139.317 Y75.913 E.01288
G1 X139.433 Y75.655 E.00889
M204 S1000
G1 X139.777 Y75.808 F10800
M204 S800
G1 F1200
G1 X140.018 Y75.363 E.01587
G1 X140.251 Y75.039 E.01253
G1 X140.499 Y74.759 E.01171
G1 X140.792 Y74.488 E.01252
G1 X141.098 Y74.258 E.01201
G1 X141.445 Y74.049 E.01268
G1 X141.812 Y73.878 E.0127
G1 X142.198 Y73.745 E.01282
G1 X142.618 Y73.651 E.01348
G1 X150.203 Y72.598 E.24011
G1 X150.786 Y72.565 E.01831
G1 X151.227 Y72.598 E.01385
G1 X151.655 Y72.681 E.01368
G1 X152.07 Y72.811 E.01365
G1 X152.469 Y72.987 E.01366
G1 X152.846 Y73.209 E.01372
G1 X153.196 Y73.471 E.0137
G1 X153.514 Y73.773 E.01377
G1 X153.798 Y74.11 E.01381
G1 X154.142 Y74.665 E.02048
M73 P1 R19
G1 X157.142 Y80.715 E.21173
G1 X159.542 Y80.391 E.07593
M73 P2 R19
G1 X159.997 Y80.394 E.01424
G1 X160.391 Y80.489 E.01272
G1 X160.76 Y80.672 E.0129
G1 X161.075 Y80.928 E.01273
G1 X161.328 Y81.25 E.01284
G1 X161.486 Y81.572 E.01125
G1 X161.582 Y81.93 E.0116
G1 X162.423 Y88.037 E.19329
G1 X162.39 Y88.529 E.01547
G1 X162.232 Y88.988 E.01522
G1 X161.96 Y89.389 E.0152
G1 X161.558 Y89.729 E.01649
G1 X161.231 Y89.889 E.0114
G1 X160.868 Y89.985 E.01179
G1 X152.845 Y91.095 E.25395
G1 X152.416 Y91.087 E.01346
G1 X151.993 Y90.978 E.01369
G1 X151.609 Y90.773 E.01364
G1 X151.307 Y90.511 E.01253
G1 X151.001 Y90.057 E.01717
G1 X150.841 Y89.552 E.0166
G1 X149.169 Y77.47 E.38245
G1 X144.196 Y78.156 E.15741
G1 X144.376 Y79.497 E.04243
G1 X144.287 Y80.122 E.01977
G1 X144.098 Y80.531 E.01415
G1 X143.86 Y80.838 E.01218
G1 X143.599 Y81.063 E.01081
G1 X143.364 Y81.204 E.00859
G1 X143.122 Y81.307 E.00825
G1 X141.664 Y81.534 E.04625
G1 X141.166 Y81.499 E.01566
G1 X140.655 Y81.309 E.01709
G1 X140.263 Y81.02 E.01528
G1 X139.98 Y80.671 E.0141
G1 X139.825 Y80.36 E.01089
G1 X139.728 Y80.013 E.01128
G1 X139.438 Y77.928 E.06602
G1 X139.408 Y77.382 E.01713
G1 X139.457 Y76.828 E.01746
G1 X139.548 Y76.412 E.01334
G1 X139.665 Y76.058 E.01169
G1 X139.752 Y75.863 E.0067
M204 S1000
G1 X140.097 Y76.016 F10800
M204 S800
G1 F1200
G1 X140.33 Y75.575 E.01566
G1 X140.541 Y75.281 E.01133
G1 X140.762 Y75.029 E.01052
G1 X141.027 Y74.783 E.01132
G1 X141.301 Y74.576 E.01078
G1 X141.63 Y74.378 E.01203
G1 X141.961 Y74.225 E.01143
G1 X142.31 Y74.106 E.01156
G1 X142.692 Y74.021 E.01228
G1 X150.248 Y72.973 E.23917
G1 X150.772 Y72.942 E.01645
G1 X151.168 Y72.971 E.01245
G1 X151.553 Y73.044 E.01231
G1 X151.947 Y73.167 E.01294
G1 X152.305 Y73.327 E.01229
G1 X152.645 Y73.528 E.01238
G1 X152.959 Y73.765 E.01235
G1 X153.246 Y74.038 E.01243
G1 X153.5 Y74.341 E.01239
G1 X153.808 Y74.84 E.01839
G1 X156.748 Y80.783 E.20788
G1 X156.875 Y80.95 E.0066
G1 X157.048 Y81.05 E.00624
G1 X157.24 Y81.082 E.00613
G1 X159.581 Y80.766 E.07405
G1 X159.934 Y80.766 E.01107
G1 X160.248 Y80.839 E.01009
G1 X160.543 Y80.981 E.01028
G1 X160.795 Y81.182 E.0101
G1 X161.001 Y81.439 E.01033
G1 X161.128 Y81.691 E.00884
G1 X161.21 Y81.994 E.00985
G1 X162.046 Y88.036 E.19125
G1 X162.024 Y88.437 E.01259
G1 X161.903 Y88.803 E.01211
G1 X161.692 Y89.122 E.01198
G1 X161.367 Y89.403 E.01349
G1 X161.114 Y89.53 E.00886
G1 X160.804 Y89.613 E.01006
G1 X152.809 Y90.72 E.25307
G1 X152.449 Y90.711 E.01128
G1 X152.115 Y90.62 E.01087
G1 X151.81 Y90.454 E.01088
G1 X151.576 Y90.245 E.00985
G1 X151.351 Y89.915 E.01251
G1 X151.212 Y89.484 E.01421
G1 X149.574 Y77.65 E.37459
G1 X149.572 Y77.358 E.00916
G1 X149.679 Y76.789 E.01815
G1 X149.197 Y77.041 E.01706
G1 X148.921 Y77.123 E.00902
G1 X144.403 Y77.751 E.14302
G1 X144.119 Y77.759 E.0089
G1 X143.504 Y77.647 E.01962
G1 X143.748 Y78.082 E.01563
G1 X143.845 Y78.375 E.00968
G1 X143.998 Y79.522 E.03627
G1 X143.932 Y79.992 E.01489
G1 X143.784 Y80.321 E.01132
G1 X143.597 Y80.568 E.00971
G1 X143.388 Y80.75 E.0087
G1 X143.204 Y80.862 E.00675
G1 X142.997 Y80.95 E.00705
G1 X141.628 Y81.159 E.04342
G1 X141.266 Y81.134 E.01135
G1 X140.851 Y80.987 E.01381
G1 X140.536 Y80.76 E.01217
G1 X140.307 Y80.482 E.01129
G1 X140.171 Y80.209 E.00959
G1 X140.1 Y79.95 E.00841
G1 X139.813 Y77.884 E.0654
G1 X139.786 Y77.376 E.01595
G1 X139.831 Y76.874 E.0158
G1 X139.909 Y76.521 E.01135
G1 X140.072 Y76.071 E.01501
M204 S1000
G1 X140.417 Y76.223 F10800
M204 S800
G1 F1200
G1 X140.644 Y75.785 E.01545
G1 X140.831 Y75.521 E.01014
G1 X141.027 Y75.297 E.00933
G1 X141.262 Y75.078 E.01009
G1 X141.52 Y74.883 E.01013
G1 X141.814 Y74.707 E.01075
G1 X142.109 Y74.571 E.01016
G1 X142.42 Y74.466 E.01031
G1 X142.751 Y74.393 E.01063
G1 X150.293 Y73.347 E.23872
G1 X150.758 Y73.319 E.01462
G1 X151.11 Y73.344 E.01106
G1 X151.453 Y73.407 E.01094
G1 X151.805 Y73.517 E.01157
G1 X152.124 Y73.658 E.01094
G1 X152.428 Y73.836 E.01104
G1 X152.707 Y74.046 E.01096
G1 X152.978 Y74.304 E.01171
G1 X153.201 Y74.572 E.01093
G1 X153.474 Y75.015 E.01633
G1 X156.417 Y80.964 E.20809
G1 X156.52 Y81.122 E.00593
G1 X156.653 Y81.258 E.00595
G1 X156.918 Y81.41 E.0096
G1 X157.234 Y81.464 E.01004
G1 X159.621 Y81.141 E.0755
G1 X159.876 Y81.139 E.00802
G1 X160.109 Y81.19 E.00748
G1 X160.33 Y81.293 E.00765
G1 X160.519 Y81.439 E.00748
G1 X160.674 Y81.628 E.00767
G1 X160.782 Y81.842 E.0075
G1 X160.838 Y82.056 E.00693
G1 X161.67 Y88.068 E.1903
G1 X161.65 Y88.385 E.00997
G1 X161.556 Y88.653 E.0089
G1 X161.396 Y88.888 E.00892
G1 X161.177 Y89.076 E.00905
G1 X160.963 Y89.184 E.00749
G1 X160.742 Y89.241 E.00716
G1 X152.771 Y90.344 E.25231
G1 X152.52 Y90.34 E.00789
G1 X152.269 Y90.276 E.00811
G1 X152.043 Y90.156 E.00801
G1 X151.846 Y89.98 E.00828
G1 X151.681 Y89.732 E.00934
G1 X151.584 Y89.418 E.01031
G1 X149.949 Y77.611 E.37371
G1 X149.949 Y77.379 E.00727
G1 X149.994 Y77.164 E.0069
G1 X150.077 Y76.969 E.00663
G1 X150.27 Y76.663 E.01135
G1 X150.294 Y76.566 E.00315
G1 X150.293 Y76.456 E.00343
G1 X150.221 Y76.275 E.00613
G1 X150.05 Y76.141 E.00681
G1 X149.882 Y76.109 E.00537
G1 X149.734 Y76.139 E.00473
G1 X149.599 Y76.23 E.0051
G1 X149.423 Y76.442 E.00864
G1 X149.264 Y76.577 E.00653
G1 X149.064 Y76.687 E.00715
G1 X148.853 Y76.752 E.00692
G1 X144.363 Y77.376 E.14216
G1 X144.134 Y77.381 E.00716
G1 X143.885 Y77.331 E.00797
G1 X143.677 Y77.239 E.00715
G1 X143.431 Y77.071 E.00934
G1 X143.221 Y77.031 E.0067
G1 X143.068 Y77.072 E.00497
G1 X142.901 Y77.223 E.00706
G1 X142.846 Y77.367 E.00483
G1 X142.857 Y77.575 E.00652
G1 X142.957 Y77.73 E.00578
G1 X143.132 Y77.869 E.007
G1 X143.264 Y78.008 E.00602
G1 X143.4 Y78.228 E.00811
G1 X143.474 Y78.444 E.00716
G1 X143.621 Y79.543 E.03476
G1 X143.565 Y79.904 E.01145
G1 X143.453 Y80.14 E.00819
G1 X143.332 Y80.299 E.00625
G1 X143.176 Y80.438 E.00655
G1 X143.021 Y80.532 E.0057
G1 X142.876 Y80.592 E.00492
G1 X141.595 Y80.782 E.04059
G1 X141.322 Y80.761 E.00859
G1 X141.045 Y80.663 E.0092
G1 X140.807 Y80.496 E.00913
G1 X140.632 Y80.29 E.00848
G1 X140.528 Y80.087 E.00713
G1 X140.472 Y79.885 E.00659
G1 X140.188 Y77.839 E.06474
G1 X140.163 Y77.395 E.01395
G1 X140.203 Y76.942 E.01426
G1 X140.271 Y76.628 E.01009
G1 X140.393 Y76.277 E.01163
M204 S1000
; printing object Led strip mount bottom_Prusa 2.5 id:0 copy 0
;WIPE_START
G1 F8640
G1 X140.644 Y75.785 E-.12763
G1 X140.831 Y75.521 E-.07469
G1 X141.027 Y75.297 E-.06874
G1 X141.262 Y75.078 E-.07432
G1 X141.52 Y74.883 E-.07462
