; generated by PrusaSlicer 2.5.0+win64 on 2023-02-12 at 11:47:40 UTC

; 

; external perimeters extrusion width = 0.60mm
; perimeters extrusion width = 0.43mm
; infill extrusion width = 0.45mm
; solid infill extrusion width = 0.70mm
; top infill extrusion width = 0.45mm
; first layer extrusion width = 0.42mm

M73 P0 R70
M201 X9000 Y9000 Z500 E10000 ; sets maximum accelerations, mm/sec^2
M203 X500 Y500 Z12 E120 ; sets maximum feedrates, mm / sec
M204 P2000 R1500 T2000 ; sets acceleration (P, T) and retract acceleration (R), mm/sec^2
M205 X10.00 Y10.00 Z0.20 E4.50 ; sets the jerk limits, mm/sec
M205 S0 T0 ; sets the minimum extruding and travel feed rate, mm/sec
M107
;TYPE:Custom
M862.3 P "MK2.5" ; printer model check
M862.1 P0.4 ; nozzle diameter check
M115 U3.10.0 ; tell printer latest fw version
G90 ; use absolute coordinates
M83 ; extruder relative mode
M104 S240 ; set extruder temp
M140 S85 ; set bed temp
M190 S85 ; wait for bed temp
M109 S240 ; wait for extruder temp
G28 W ; home all without mesh bed level
G80 ; mesh bed leveling
G1 Y-3.0 F1000.0 ; go outside print area
G92 E0.0
G1 X60.0 E9.0 F1000.0 ; intro line
G1 X100.0 E12.5 F1000.0 ; intro line
G92 E0.0
M907 X540 Z830 E550
G21 ; set units to millimeters
G90 ; use absolute coordinates
M83 ; use relative distances for extrusion
M900 K0.08 ; Filament gcode LA 1.5
M900 K45 ; Filament gcode LA 1.0
M107
;LAYER_CHANGE
;Z:0.2
;HEIGHT:0.2
;BEFORE_LAYER_CHANGE
G92 E0.0
;0.2


G1 E-1 F2100
G1 Z.2 F720
;AFTER_LAYER_CHANGE
;0.2
G1 Z.4
G1 X59.359 Y123.095 F10800
G1 Z.2 F720
G1 E1 F2100
M204 S800
;TYPE:Skirt/Brim
;WIDTH:0.42
G1 F1200
G1 X174.809 Y67.779 E4.0139
G1 X184.051 Y66.965 E.29091
M73 P0 R69
G1 X184.832 Y67.139 E.02507
G1 X185.539 Y67.48 E.0246
G1 X186.563 Y68.522 E.04583
G1 X186.858 Y69.124 E.02099
G1 X187.02 Y69.724 E.01948
G1 X187.153 Y71.42 E.05334
G1 X186.953 Y72.441 E.03264
G1 X186.493 Y73.296 E.03045
G1 X185.684 Y74.069 E.03508
G1 X184.691 Y74.526 E.03427
G1 X184.431 Y74.58 E.00834
G1 X184.602 Y76.601 E.06359
G1 X206.23 Y74.773 E.68056
G1 X206.778 Y74.781 E.01719
G1 X207.342 Y74.883 E.01797
G1 X208.387 Y75.376 E.03624
G1 X209.008 Y75.943 E.02635
G1 X209.452 Y76.61 E.02512
G1 X209.784 Y77.685 E.03527
G1 X210.501 Y86.251 E.26953
G1 X210.469 Y86.827 E.01808
G1 X210.338 Y87.39 E.01811
G1 X210.113 Y87.918 E.01801
G1 X209.773 Y88.436 E.01942
G1 X209.195 Y89.006 E.02544
G1 X208.485 Y89.426 E.02587
G1 X69.325 Y145.684 E4.70632
G1 X68.719 Y145.909 E.02029
G1 X67.676 Y146.217 E.03409
G1 X66.619 Y146.43 E.0338
G1 X65.548 Y146.55 E.03381
G1 X64.47 Y146.576 E.03381
G1 X63.395 Y146.508 E.03378
G1 X62.326 Y146.346 E.0339
G1 X61.273 Y146.091 E.03398
G1 X60.249 Y145.745 E.03388
G1 X59.261 Y145.312 E.03381
G1 X58.317 Y144.795 E.03375
G1 X57.421 Y144.198 E.03377
G1 X56.58 Y143.526 E.03376
G1 X55.801 Y142.782 E.03377
G1 X55.089 Y141.973 E.03377
G1 X54.451 Y141.105 E.03379
G1 X53.889 Y140.183 E.03385
G1 X53.357 Y139.091 E.0381
G1 X52.926 Y137.931 E.03879
G1 X52.756 Y137.337 E.01939
G1 X52.614 Y136.727 E.01964
G1 X52.435 Y135.599 E.0358
G1 X52.359 Y134.38 E.03831
G1 X52.406 Y133.143 E.03881
G1 X52.477 Y132.52 E.01967
G1 X52.577 Y131.911 E.01935
G1 X52.849 Y130.781 E.03645
G1 X53.248 Y129.624 E.03836
G1 X53.76 Y128.513 E.03835
G1 X54.354 Y127.495 E.03695
G1 X54.709 Y126.979 E.01966
G1 X55.089 Y126.482 E.01961
G1 X55.5 Y125.997 E.01992
G1 X55.944 Y125.526 E.02031
G1 X56.785 Y124.754 E.03581
G1 X57.745 Y124.028 E.03773
G1 X58.792 Y123.386 E.03849
G1 X59.306 Y123.123 E.01812
M204 S1000
G1 X59.478 Y123.458 F10800
M204 S800
G1 F1200
G1 X174.941 Y68.134 E4.01441
G1 X184 Y67.34 E.28512
G1 X184.689 Y67.488 E.02209
G1 X185.344 Y67.805 E.02282
G1 X186.27 Y68.761 E.04172
G1 X186.509 Y69.268 E.01757
G1 X186.651 Y69.803 E.01737
G1 X186.775 Y71.423 E.05094
G1 X186.607 Y72.291 E.02772
G1 X186.208 Y73.048 E.02684
G1 X185.496 Y73.741 E.03113
G1 X184.565 Y74.169 E.03216
G1 X184.024 Y74.244 E.01712
G1 X184.258 Y77.009 E.087
G1 X206.252 Y75.15 E.69208
G1 X206.756 Y75.158 E.0158
G1 X207.25 Y75.249 E.01576
G1 X208.156 Y75.676 E.03141
G1 X208.708 Y76.172 E.02327
G1 X209.123 Y76.796 E.02349
G1 X209.41 Y77.736 E.03082
G1 X210.124 Y86.245 E.26774
G1 X210.098 Y86.76 E.01616
G1 X209.984 Y87.26 E.01607
G1 X209.787 Y87.728 E.01593
G1 X209.493 Y88.182 E.01696
G1 X208.948 Y88.72 E.02403
G1 X208.331 Y89.081 E.02239
G1 X69.186 Y145.333 E4.70582
G1 X68.606 Y145.55 E.01943
M73 P1 R69
G1 X67.593 Y145.849 E.03311
G1 X66.569 Y146.056 E.03276
G1 X65.514 Y146.174 E.03328
G1 X64.469 Y146.199 E.03277
G1 X63.427 Y146.132 E.03274
G1 X62.391 Y145.975 E.03286
G1 X61.37 Y145.726 E.03294
G1 X60.378 Y145.39 E.03285
G1 X59.421 Y144.97 E.03278
G1 X58.505 Y144.469 E.03272
G1 X57.637 Y143.889 E.03274
G1 X56.822 Y143.236 E.03273
G1 X56.067 Y142.515 E.03273
G1 X55.378 Y141.731 E.03274
G1 X54.76 Y140.889 E.03275
G1 X54.216 Y139.995 E.0328
G1 X53.7 Y138.935 E.03698
G1 X53.287 Y137.821 E.03724
G1 X53.12 Y137.238 E.01902
G1 X52.982 Y136.648 E.01898
G1 X52.809 Y135.549 E.03488
G1 X52.736 Y134.366 E.03717
G1 X52.781 Y133.178 E.03727
G1 X52.85 Y132.576 E.019
G1 X52.948 Y131.979 E.01898
G1 X53.214 Y130.878 E.03551
G1 X53.602 Y129.756 E.03721
G1 X54.099 Y128.679 E.03719
G1 X54.669 Y127.703 E.03545
G1 X55.012 Y127.204 E.01899
G1 X55.386 Y126.715 E.01931
G1 X55.784 Y126.245 E.01931
G1 X56.214 Y125.789 E.01963
G1 X57.034 Y125.038 E.03488
G1 X57.965 Y124.334 E.03659
G1 X58.982 Y123.712 E.03739
G1 X59.424 Y123.486 E.01557
M204 S1000
G1 X59.596 Y123.821 F10800
M204 S800
G1 F1200
G1 X175.074 Y68.488 E4.01492
G1 X183.948 Y67.714 E.27931
G1 X184.586 Y67.852 E.02046
G1 X185.148 Y68.128 E.01964
G1 X185.943 Y68.951 E.03588
G1 X186.149 Y69.382 E.01497
G1 X186.282 Y69.883 E.01625
G1 X186.397 Y71.426 E.04852
G1 X186.259 Y72.143 E.02291
G1 X185.92 Y72.803 E.02327
G1 X185.308 Y73.412 E.02707
G1 X184.437 Y73.813 E.03006
G1 X183.617 Y73.906 E.02587
G1 X183.914 Y77.416 E.11046
G1 X206.274 Y75.526 E.70359
G1 X206.732 Y75.535 E.01437
G1 X207.156 Y75.615 E.01354
G1 X207.925 Y75.975 E.0266
G1 X208.437 Y76.436 E.0216
G1 X208.792 Y76.979 E.02035
G1 X209.036 Y77.787 E.02647
G1 X209.747 Y86.241 E.266
G1 X209.726 Y86.695 E.01425
G1 X209.629 Y87.132 E.01403
G1 X209.46 Y87.541 E.01388
G1 X209.211 Y87.931 E.01452
G1 X208.735 Y88.408 E.02113
G1 X208.177 Y88.737 E.0203
G1 X69.047 Y144.983 E4.7053
G1 X68.492 Y145.19 E.01858
G1 X67.51 Y145.481 E.03213
G1 X66.518 Y145.682 E.03172
G1 X65.497 Y145.797 E.03224
G1 X64.485 Y145.822 E.03174
G1 X63.475 Y145.758 E.03171
G1 X62.472 Y145.606 E.03182
G1 X61.467 Y145.362 E.03242
G1 X60.507 Y145.036 E.0318
G1 X59.58 Y144.628 E.03174
G1 X58.694 Y144.142 E.03169
G1 X57.853 Y143.58 E.03171
G1 X57.064 Y142.948 E.0317
G1 X56.334 Y142.249 E.0317
G1 X55.667 Y141.488 E.0317
G1 X55.069 Y140.673 E.03172
G1 X54.543 Y139.807 E.03175
G1 X54.043 Y138.778 E.03587
G1 X53.648 Y137.71 E.03571
G1 X53.486 Y137.147 E.01835
G1 X53.351 Y136.569 E.01862
G1 X53.183 Y135.5 E.03395
G1 X53.114 Y134.371 E.03546
G1 X53.157 Y133.214 E.0363
G1 X53.223 Y132.633 E.01833
G1 X53.319 Y132.047 E.01862
G1 X53.578 Y130.975 E.03457
G1 X53.955 Y129.889 E.03605
G1 X54.437 Y128.846 E.03603
G1 X54.983 Y127.911 E.03395
G1 X55.32 Y127.421 E.01863
G1 X55.682 Y126.948 E.0187
G1 X56.069 Y126.493 E.0187
G1 X56.483 Y126.053 E.01896
G1 X57.282 Y125.322 E.03394
G1 X58.184 Y124.641 E.03546
G1 X59.173 Y124.038 E.0363
G1 X59.543 Y123.849 E.01303
M204 S1000
G1 X59.714 Y124.184 F10800
M204 S800
G1 F1200
G1 X175.206 Y68.843 E4.01542
G1 X183.899 Y68.089 E.2736
M73 P1 R68
G1 X184.441 Y68.201 E.01737
G1 X184.952 Y68.452 E.01783
G1 X185.616 Y69.141 E.03001
G1 X185.801 Y69.528 E.01343
G1 X185.913 Y69.96 E.01399
G1 X186.019 Y71.427 E.04611
G1 X185.895 Y72.041 E.01964
G1 X185.601 Y72.6 E.01982
G1 X185.07 Y73.118 E.02325
G1 X184.313 Y73.456 E.02598
G1 X183.209 Y73.564 E.03477
G1 X183.57 Y77.824 E.13403
G1 X206.297 Y75.903 E.71513
G1 X206.678 Y75.908 E.01197
G1 X207.064 Y75.981 E.01229
G1 X207.696 Y76.276 E.02189
G1 X208.135 Y76.664 E.01837
G1 X208.461 Y77.162 E.01866
G1 X208.662 Y77.838 E.0221
G1 X209.369 Y86.238 E.26434
G1 X209.354 Y86.632 E.01236
G1 X209.273 Y87.006 E.01199
G1 X209.131 Y87.356 E.01185
G1 X208.926 Y87.683 E.01209
G1 X208.52 Y88.097 E.01818
G1 X208.022 Y88.393 E.01817
G1 X68.908 Y144.632 E4.70477
G1 X68.378 Y144.831 E.01773
G1 X67.426 Y145.113 E.03114
G1 X66.467 Y145.309 E.03068
G1 X65.479 Y145.421 E.0312
G1 X64.5 Y145.445 E.03069
G1 X63.507 Y145.383 E.03119
G1 X62.537 Y145.235 E.03078
G1 X61.565 Y144.997 E.03137
G1 X60.636 Y144.682 E.03076
G1 X59.74 Y144.287 E.03071
G1 X58.883 Y143.816 E.03066
G1 X58.07 Y143.272 E.03068
G1 X57.307 Y142.659 E.03067
G1 X56.601 Y141.982 E.03067
G1 X55.956 Y141.246 E.03067
G1 X55.378 Y140.457 E.03069
G1 X54.87 Y139.619 E.03071
G1 X54.393 Y138.638 E.03419
G1 X54.008 Y137.599 E.03476
G1 X53.85 Y137.048 E.01798
G1 X53.72 Y136.49 E.01795
G1 X53.557 Y135.45 E.03302
G1 X53.491 Y134.357 E.03432
G1 X53.532 Y133.249 E.03477
G1 X53.597 Y132.68 E.01796
G1 X53.69 Y132.115 E.01795
G1 X53.942 Y131.073 E.03363
G1 X54.308 Y130.022 E.0349
G1 X54.767 Y129.028 E.03432
G1 X55.298 Y128.119 E.03302
G1 X55.622 Y127.647 E.01796
G1 X55.973 Y127.188 E.01809
G1 X56.353 Y126.741 E.01839
G1 X56.753 Y126.317 E.01828
G1 X57.529 Y125.606 E.03301
G1 X58.404 Y124.948 E.03432
G1 X59.35 Y124.37 E.03477
G1 X59.661 Y124.212 E.01093
M204 S1000
G1 X59.832 Y124.547 F10800
M204 S800
G1 F1200
G1 X175.338 Y69.198 E4.01593
G1 X183.849 Y68.464 E.26786
M73 P2 R68
G1 X184.34 Y68.565 E.0157
G1 X184.753 Y68.774 E.0145
G1 X185.289 Y69.331 E.02426
G1 X185.452 Y69.673 E.01187
G1 X185.543 Y70.035 E.01169
G1 X185.641 Y71.425 E.04372
G1 X185.533 Y71.933 E.01629
G1 X185.284 Y72.393 E.01638
G1 X184.834 Y72.822 E.0195
G1 X184.246 Y73.084 E.02017
G1 X182.802 Y73.225 E.04549
G1 X183.226 Y78.231 E.15751
G1 X206.319 Y76.279 E.72665
G1 X206.654 Y76.285 E.01053
G1 X206.969 Y76.347 E.01004
G1 X207.468 Y76.577 E.01722
G1 X207.865 Y76.928 E.01664
G1 X208.128 Y77.341 E.01534
G1 X208.287 Y77.887 E.01786
G1 X208.992 Y86.238 E.26276
G1 X208.981 Y86.572 E.01049
G1 X208.916 Y86.883 E.00996
G1 X208.802 Y87.171 E.00973
G1 X208.618 Y87.465 E.01085
G1 X208.272 Y87.813 E.0154
G1 X207.869 Y88.048 E.01463
G1 X68.769 Y144.282 E4.70429
G1 X68.252 Y144.475 E.0173
G1 X67.327 Y144.749 E.03026
G1 X66.401 Y144.937 E.02964
G1 X65.445 Y145.045 E.03016
G1 X64.499 Y145.068 E.02966
G1 X63.556 Y145.009 E.02964
G1 X62.618 Y144.866 E.02973
G1 X61.663 Y144.633 E.03084
G1 X60.766 Y144.327 E.02971
G1 X59.9 Y143.945 E.02968
G1 X59.072 Y143.489 E.02963
G1 X58.287 Y142.963 E.02965
G1 X57.55 Y142.37 E.02964
G1 X56.868 Y141.716 E.02964
G1 X56.246 Y141.004 E.02964
G1 X55.687 Y140.241 E.02966
G1 X55.197 Y139.431 E.02966
G1 X54.736 Y138.482 E.03308
G1 X54.368 Y137.488 E.03323
G1 X54.216 Y136.958 E.0173
G1 X54.089 Y136.412 E.01758
G1 X53.93 Y135.401 E.03208
G1 X53.867 Y134.344 E.03319
G1 X53.908 Y133.285 E.03325
G1 X53.97 Y132.737 E.01729
G1 X54.061 Y132.184 E.01758
G1 X54.307 Y131.171 E.03268
G1 X54.654 Y130.171 E.03318
G1 X55.097 Y129.21 E.03318
G1 X55.613 Y128.326 E.03208
G1 X55.931 Y127.864 E.01759
G1 X56.269 Y127.421 E.01748
G1 X56.637 Y126.989 E.01778
G1 X57.022 Y126.581 E.0176
G1 X57.777 Y125.891 E.03207
G1 X58.623 Y125.254 E.03319
G1 X59.528 Y124.703 E.03324
G1 X59.779 Y124.575 E.00882
M204 S1000
G1 X59.951 Y124.91 F10800
M204 S800
G1 F1200
G1 X175.47 Y69.553 E4.01643
G1 X183.804 Y68.839 E.26228
G1 X184.194 Y68.914 E.01244
G1 X184.554 Y69.096 E.01264
G1 X184.962 Y69.521 E.01848
G1 X185.103 Y69.817 E.01028
G1 X185.172 Y70.106 E.00932
G1 X185.263 Y71.422 E.04137
G1 X185.172 Y71.821 E.01282
G1 X184.971 Y72.182 E.01295
G1 X184.602 Y72.524 E.01578
G1 X184.179 Y72.711 E.01449
G1 X182.922 Y72.835 E.03961
G1 X182.179 Y72.726 E.02355
G1 X182.394 Y73.227 E.01709
G1 X182.452 Y73.507 E.00898
G1 X182.834 Y78.073 E.14364
G1 X182.812 Y78.361 E.00906
G1 X182.678 Y78.87 E.01651
G1 X183.237 Y78.636 E.019
G1 X183.514 Y78.581 E.00885
G1 X206.342 Y76.656 E.71829
G1 X206.599 Y76.658 E.00807
G1 X206.875 Y76.712 E.0088
G1 X207.243 Y76.881 E.0127
G1 X207.563 Y77.155 E.01321
G1 X207.795 Y77.519 E.01354
G1 X207.913 Y77.937 E.01359
G1 X208.616 Y86.26 E.26189
G1 X208.609 Y86.515 E.008
G1 X208.558 Y86.763 E.00795
G1 X208.47 Y86.992 E.00768
G1 X208.332 Y87.219 E.00835
G1 X208.057 Y87.502 E.01235
G1 X207.714 Y87.704 E.01248
G1 X68.63 Y143.931 E4.70376
G1 X68.126 Y144.12 E.01686
G1 X67.244 Y144.381 E.02887
G1 X66.35 Y144.564 E.0286
G1 X65.427 Y144.668 E.02912
G1 X64.514 Y144.691 E.02862
G1 X63.604 Y144.634 E.02861
G1 X62.699 Y144.498 E.02867
G1 X61.76 Y144.269 E.03031
G1 X60.896 Y143.973 E.02866
G1 X60.06 Y143.604 E.02864
G1 X59.261 Y143.163 E.02859
G1 X58.504 Y142.655 E.02862
G1 X57.793 Y142.082 E.02861
G1 X57.135 Y141.45 E.02861
G1 X56.535 Y140.762 E.02861
G1 X55.996 Y140.025 E.02863
G1 X55.525 Y139.244 E.02861
G1 X55.08 Y138.326 E.03198
G1 X54.729 Y137.377 E.03172
G1 X54.58 Y136.858 E.01693
G1 X54.458 Y136.333 E.01691
G1 X54.304 Y135.352 E.03115
G1 X54.245 Y134.349 E.03148
G1 X54.283 Y133.32 E.03229
G1 X54.344 Y132.784 E.01691
G1 X54.432 Y132.252 E.0169
G1 X54.666 Y131.286 E.03118
G1 X55.001 Y130.32 E.03204
G1 X55.428 Y129.392 E.03204
G1 X55.928 Y128.534 E.03115
G1 X56.233 Y128.089 E.01692
G1 X56.56 Y127.661 E.01687
G1 X56.914 Y127.244 E.01716
G1 X57.292 Y126.845 E.01723
G1 X58.025 Y126.175 E.03113
G1 X58.827 Y125.572 E.03149
G1 X59.706 Y125.035 E.03229
G1 X59.897 Y124.938 E.00672
M204 S1000
G1 X60.069 Y125.273 F10800
M204 S800
G1 F1200
G1 X175.602 Y69.908 E4.01693
G1 X183.765 Y69.214 E.25687
G1 X184.051 Y69.264 E.00909
G1 X184.355 Y69.418 E.01069
G1 X184.634 Y69.711 E.01269
G1 X184.753 Y69.959 E.00864
G1 X184.801 Y70.174 E.00689
G1 X184.889 Y71.366 E.03748
G1 X184.811 Y71.707 E.01098
G1 X184.66 Y71.967 E.00942
G1 X184.414 Y72.196 E.01055
G1 X184.109 Y72.339 E.01056
G1 X182.904 Y72.458 E.03795
G1 X182.68 Y72.43 E.00709
G1 X182.493 Y72.368 E.00615
G1 X182.312 Y72.269 E.00647
G1 X182.047 Y72.074 E.01032
G1 X181.851 Y72.051 E.0062
G1 X181.698 Y72.1 E.00502
G1 X181.527 Y72.268 E.00753
G1 X181.487 Y72.506 E.00755
G1 X181.537 Y72.664 E.0052
G1 X181.79 Y72.918 E.01126
G1 X181.929 Y73.103 E.00725
M73 P3 R68
G1 X182.029 Y73.327 E.00769
G1 X182.077 Y73.551 E.00718
G1 X182.457 Y78.087 E.14273
G1 X182.438 Y78.308 E.00694
G1 X182.383 Y78.501 E.00628
G1 X182.284 Y78.695 E.00685
G1 X182.062 Y79.02 E.01233
G1 X182.048 Y79.163 E.00451
G1 X182.092 Y79.328 E.00534
G1 X182.218 Y79.474 E.00604
G1 X182.39 Y79.545 E.00585
G1 X182.564 Y79.536 E.00545
G1 X182.716 Y79.455 E.00539
G1 X182.927 Y79.234 E.00959
G1 X183.111 Y79.099 E.00716
G1 X183.334 Y79.001 E.00765
G1 X183.557 Y78.956 E.00713
G1 X206.366 Y77.032 E.7177
G1 X206.551 Y77.033 E.0058
G1 X206.747 Y77.068 E.00624
G1 X207.025 Y77.189 E.00952
G1 X207.266 Y77.389 E.0098
G1 X207.442 Y77.655 E.00999
G1 X207.539 Y77.988 E.01088
G1 X208.239 Y86.282 E.26098
G1 X208.235 Y86.46 E.0056
G1 X208.199 Y86.647 E.00596
G1 X208.135 Y86.817 E.00568
G1 X208.041 Y86.979 E.00588
G1 X207.84 Y87.193 E.0092
G1 X207.559 Y87.36 E.01025
G1 X68.491 Y143.581 E4.70321
G1 X68 Y143.764 E.01642
M73 P3 R67
G1 X67.145 Y144.018 E.02798
G1 X66.283 Y144.192 E.02757
G1 X65.409 Y144.292 E.02758
G1 X64.529 Y144.314 E.0276
G1 X63.651 Y144.26 E.02758
G1 X62.78 Y144.13 E.02761
G1 X61.858 Y143.905 E.02977
G1 X61.026 Y143.619 E.02759
G1 X60.221 Y143.262 E.02761
G1 X59.451 Y142.837 E.02756
G1 X58.721 Y142.346 E.02759
G1 X58.037 Y141.794 E.02758
G1 X57.403 Y141.184 E.02758
G1 X56.825 Y140.521 E.02758
G1 X56.306 Y139.81 E.0276
G1 X55.852 Y139.057 E.02757
G1 X55.43 Y138.187 E.03032
G1 X55.089 Y137.266 E.03077
G1 X54.944 Y136.759 E.01655
G1 X54.827 Y136.255 E.01623
G1 X54.678 Y135.303 E.03021
G1 X54.622 Y134.336 E.03035
G1 X54.659 Y133.355 E.03077
G1 X54.718 Y132.831 E.01654
G1 X54.803 Y132.321 E.01623
G1 X55.03 Y131.384 E.03024
G1 X55.354 Y130.453 E.0309
G1 X55.758 Y129.574 E.03034
G1 X56.243 Y128.741 E.03021
G1 X56.536 Y128.314 E.01624
G1 X56.856 Y127.894 E.01656
G1 X57.198 Y127.492 E.01654
G1 X57.561 Y127.109 E.01655
G1 X58.272 Y126.46 E.03019
G1 X59.046 Y125.879 E.03035
G1 X60.016 Y125.301 E.03538
M204 S1000
; printing object Led strip mount base_Prusa 2.5 id:0 copy 0
;WIPE_START
